X:120
T:[untitled]
T:pretty
Z:Jack Campin - http://www.campin.me.uk
S:Blaikie MS (NLS MS.1578) p35, Blaikie #114
M:6/8
L:1/8
V:1 midi program 1 74
V:2 midi program 1 46 bass middle = d transpose -24
Q:3/8=80
K:D Minor
[V:1] D/E/|F2D F2G|A2G A2A|d2e    fed|c2d A3 |
[V:2] z   |D3  d3 |D3  d3 |D3     d3 |A3  a2g|
%
[V:1]      d2e fed|c2d A2G|A/B/cB A2D|E3  D2|]
[V:2]      f2e def|a3  a2e|f3     f3 |a3  d2|]
W:Transcription (c) Jack Campin 2009, no mirroring or republication without permission

